X:13032
T:Mudgee Waltz
R:Waltz
C:Trad.
O:Australia
Z:Paul Hardy's Session Tunebook 2015 (see www.paulhardy.net). Creative Commons cc by-nc-sa licenced.
M:3/4
L:1/8
Q:1/4=140
K:D
AG|"D"F3 G A2|D2 E2 F2|"Em"G4 B2|E4 A2|"A7"c3 B A2|G2 F2 E2|"D"F2 G2 B2|"A"A4 AG|
"D"F3 G A2|D2 E2 F2|"Em"G4 B2|"A"E4 A2|"A7"c3 B A2|G2 F2 E2|"D"D2 A2 F2|D4 "A"A2||
"D"f3 e d2|F2 A2 d2|"G"c4 B2|"Em"E4 A2|"A"c3 B A2|G2 F2 E2|"D"F2 G2 B2|"A"A4 A2|
"D"f3 e d2|F2 A2 d2|"G"c4 B2|"Em"E4 A2|"A"c3 B A2|G2 F2 E2|"D"D2 A2 F2|D4|]

